X: 39502
T: Tattie Ball, The
R: reel
M: 4/4
K: Amajor
|:AcBc AFFA|DEED EFAB|AcBc AF (3ABc|1 effe f3e:|2 effe aefa||
faef cBBc|eAce fcBc|faef cBBc|effe f3e|
faef cBBc|eAcA ~B2AB|cBcf ecBc|AFFE F3B||

